!!!COM: Palestrina, Giovanni Perluigi da
!!!OPR: Missa Io mi son giovinetta (1570)
!!!OTL: Kyrie
**kern	**kern	**kern	**kern
*Ibass	*Itenor	*Icalto	*Icant
!Bassus	!Tenor	!Altus	!Cantus
*clefF4	*clefGv2	*clefG2	*clefG2
*k[b-]	*k[b-]	*k[b-]	*k[b-]
*G:dor	*G:dor	*G:dor	*G:dor
*M4/2	*M4/2	*M4/2	*M4/2
=1	=1	=1	=1
0r	0r	1r	1dd
.	.	1g	2dd
.	.	.	2dd
=2	=2	=2	=2
0r	0r	2g	2.ee
.	.	2g	.
.	.	.	4dd
.	.	2.a	2cc
.	.	.	[2ff
.	.	4g	.
=3	=3	=3	=3
0r	0r	2f	2ff]
.	.	2g	2.ee
.	.	2f	.
.	.	.	4dd
.	.	2g	[2dd
=4	=4	=4	=4
0r	0r	1e	2dd]
.	.	.	2cc#
.	.	2d	2dd
.	.	[2g	2b-
=5	=5	=5	=5
1r	1d	2g]	1a
.	.	2f#	.
1G	2d	1g	[1g
.	2d	.	.
=6	=6	=6	=6
2G	2.e	0r	1g]
2G	.	.	.
.	4d	.	.
2.A	2c	.	1r
.	[2f	.	.
4G	.	.	.
=7	=7	=7	=7
2F	2f]	1r	0r
2G	2.e	.	.
2F	.	2r	.
.	4d	.	.
2G	[2d	2g	.
=8	=8	=8	=8
1E	2d]	2g	1r
.	2c	2g	.
1D	2.f	2.a	1dd
.	4e	4g	.
=9	=9	=9	=9
2r	2d	2f	2dd
2G	2B-	1g	2dd
2C	4c	.	2.ee
.	4d	.	.
[2c	4e	2c	.
.	4f	.	4dd
=10	=10	=10	=10
2c]	1g	2e	2cc
2B-	.	2d	2dd
2A	1a	2e	2cc
2D	.	2f	2dd
=11	=11	=11	=11
1G	[0d	1g	1b-
[1D	.	2f	1a
.	.	2d	.
=12	=12	=12	=12
1D]	1d]	2f	2r
.	.	2d	2a
1r	1r	2e	2cc
.	.	2f	2a
=13	=13	=13	=13
0r	0r	2g	2b-
.	.	2e	2cc
.	.	2.d	2dd
.	.	.	2b-
.	.	4e	.
=14	=14	=14	=14
2r	0r	4f	4a
.	.	4g	4b-
2A	.	2a	4cc
.	.	.	4dd
2c	.	2g	4ee
.	.	.	4cc
2A	.	2f	[2ff
=15	=15	=15	=15
2B-	1r	1g	2ff]
2c	.	.	2ee
[1d	2r	2.f	1ff
.	2d	.	.
.	.	4g	.
=16	=16	=16	=16
1d]	2f	0a	2r
.	2d	.	2a
1A	2e	.	2cc
.	2f	.	2a
=17	=17	=17	=17
2r	2g	0r	2b-
2A	2e	.	2cc
2B-	2.d	.	2dd
2G	.	.	2b-
.	4e	.	.
=18	=18	=18	=18
1d	4f	2r	1a
.	4e	.	.
.	4f	2d	.
.	4g	.	.
1D	2a	2f	[1dd
.	2f	2d	.
=19	=19	=19	=19
0r	2g	2e	2dd]
.	2.a	2f	2cc
.	.	2g	2b-
.	4g	.	.
.	[2g	2e	2g
=20	=20	=20	=20
2r	4g]	1d	0a
.	4f	.	.
2D	4f	.	.
.	8e	.	.
.	8d	.	.
2F	2c	2r	.
2D	2d	2A	.
=21	=21	=21	=21
2E	2G	2c	2g
2F	2c	2A	2.a
2G	2B-	2B-	.
.	.	.	4g
2E-	4A	2c	[2g
.	4G	.	.
=22	=22	=22	=22
1D	1A	[0d	2g]
.	.	.	2f#
2r	[1G	.	1g
2G	.	.	.
=23	=23	=23	=23
1B-	1G]	1d]	2r
.	.	.	2g
1G	1r	2r	2b-
.	.	2d	2g
=24	=24	=24	=24
1D	0r	2f	2a
.	.	2d	2b-
1A	.	2e	2cc
.	.	2f	2a
=25	=25	=25	=25
0r	2r	0g	4g
.	.	.	4a
.	2G	.	4b-
.	.	.	4cc
.	2B-	.	2dd
.	2G	.	2b-
=26	=26	=26	=26
0r	2A	1f	2cc
.	2B-	.	2dd
.	2c	2.e	2g
.	2A	.	[2cc
.	.	4f	.
=27	=27	=27	=27
1r	2G	1g	4cc]
.	.	.	4b-
.	2.g	.	2b-
2r	.	1d	[1a
.	4f	.	.
2D	4f	.	.
.	8e	.	.
.	8d	.	.
=28	=28	=28	=28
2F	2c	2r	1a]
2D	2d	2A	.
2E	2G	2c	2g
2F	2c	2A	[2a
=29	=29	=29	=29
2G	2B-	2B-	4a]
.	.	.	4g
2E-	4A	2c	1g
.	4G	.	.
1D	1A	1d	.
.	.	.	2f#
=30	=30	=30	=30
0G	0G	0d	0g
=31	=31	=31	=31
1G	1r	0r	0r
[1B-	1d	.	.
=32	=32	=32	=32
2B-]	1.f	0r	0r
2B-	.	.	.
2A	.	.	.
2F	2f	.	.
=33	=33	=33	=33
1A	2e	1r	0r
.	2c	.	.
[1G	1e	1g	.
=34	=34	=34	=34
0G]	1d	1.b-	1r
.	1g	.	1dd
.	.	2b-	.
=35	=35	=35	=35
0r	2f	2a	1.ff
.	2d	2f	.
.	1f	1a	.
.	.	.	2ff
=36	=36	=36	=36
0r	0c	1g	2ee
.	.	.	2cc
.	.	1cc	1ee
=37	=37	=37	=37
0r	1r	2b-	2dd
.	.	2g	2gg
.	2r	1b-	2ff
.	2g	.	2dd
=38	=38	=38	=38
0r	2f	1.a	2.ff
.	2d	.	.
.	.	.	4ee
.	2.f	.	2dd
.	.	2g	2cc
.	4e	.	.
=39	=39	=39	=39
0r	2d	2f	2b-
.	2c	2e	2.a
.	2B-	2d	.
.	.	.	4g
.	2c	[2e	[2g
=40	=40	=40	=40
1c	1A	2e]	2g]
.	.	4d	2f#
.	.	4c	.
2B-	2G	[1d	1g
2G	2g	.	.
=41	=41	=41	=41
1B-	2f	1d]	2r
.	2d	.	1dd
2.A	2f	1r	.
.	[2e	.	2cc
4G	.	.	.
=42	=42	=42	=42
2F	4e]	1r	2a
.	4d	.	.
2G	1d	.	2b-
1E	.	2r	1g
.	2c#	[2g	.
=43	=43	=43	=43
1D	1d	2g]	2r
.	.	2f	2dd
1r	1r	2e	2cc#
.	.	2f	2dd
=44	=44	=44	=44
1r	2r	2g	1b-
.	1g	2G	.
2r	.	1d	[1a
2d	2f	.	.
=45	=45	=45	=45
2c#	2e	2A	1a]
2d	1f	1a	.
1B-	.	.	2r
.	2d	2g	2dd
=46	=46	=46	=46
2A	2e	1a	2cc#
2F	2f	.	2dd
1G	[1d	2r	1b-
.	.	[2g	.
=47	=47	=47	=47
0D	1d]	2g]	1a
.	.	2f	.
.	2r	4d	1ff
.	.	4e	.
.	2d	4f	.
.	.	4g	.
=48	=48	=48	=48
0r	2c#	1a	2ee
.	2d	.	2.ff
.	1B-	1d	.
.	.	.	4ee
.	.	.	[2dd
=49	=49	=49	=49
1r	1A	1e	2dd]
.	.	.	2cc#
1G	1r	[1d	2dd
.	.	.	2b-
=50	=50	=50	=50
2F#	2r	1d]	2a
2G	1d	.	2b-
1E-	.	2r	2.g
.	2c	2g	.
.	.	.	4a
=51	=51	=51	=51
2D	2d	2f#	1b-
2d	2G	2g	.
2c#	2A	2e	1a
2d	[2a	[2f	.
=52	=52	=52	=52
1B-	2a]	2f]	2r
.	2g	4e	2dd
.	.	4d	.
2A	2a	2e	2cc#
2B-	[2f	[2d	2dd
=53	=53	=53	=53
1G	2f]	2d]	1b-
.	2e	4c	.
.	.	4B-	.
2F	2f	2c	2a
2G	[2d	2B-	[2b-
=54	=54	=54	=54
1E-	2d]	2G	2b-]
.	2c	2g	4a
.	.	.	4g
2D	2d	2f#	1b-
2d	2G	2g	.
=55	=55	=55	=55
2c#	2A	2e	1a
2d	1a	1f	.
1B-	.	.	1dd
.	2g	4e	.
.	.	4d	.
=56	=56	=56	=56
2A	2a	2e	2cc#
2D	1f	1d	2dd
2G	.	.	1b-
2G	2e	4c	.
.	.	4B-	.
=57	=57	=57	=57
2F	2.f	2c	2a
4D	.	2d	1ff
4E	4e	.	.
4F	2d	2A	.
4G	.	.	.
2A	2c#	[2a	2ee
=58	=58	=58	=58
0B-	0d	2a]	0dd
.	.	4g	.
.	.	4f	.
.	.	1g	.
=59	=59	=59	=59
0A	0e	0a	0cc#
=60	=60	=60	=60
0r	0r	1a	1r
.	.	2b-	1dd
.	.	2b-	.
=61	=61	=61	=61
0r	0r	2a	2ff
.	.	2f	2ff
.	.	2g	2ee
.	.	2a	2cc
=62	=62	=62	=62
0r	0r	2b-	2dd
.	.	4a	2ee
.	.	4g	.
.	.	2.a	2ff
.	.	.	4ee
.	.	4f	4dd
=63	=63	=63	=63
1r	0r	4g	2ee
.	.	4e	.
.	.	4f	1dd
.	.	4g	.
1A	.	2e	.
.	.	[2a	2cc#
=64	=64	=64	=64
2B-	1d	2a]	1dd
2B-	.	2g	.
2A	2f	1a	1r
2F	2f	.	.
=65	=65	=65	=65
2G	2e	0r	0r
2A	2c	.	.
2B-	2d	.	.
4A	2e	.	.
4G	.	.	.
=66	=66	=66	=66
2.A	2f	0r	0r
.	4e	.	.
4F	4d	.	.
2G	2e	.	.
2F	[2d	.	.
=67	=67	=67	=67
1E	2d]	0r	1g
.	2c#	.	.
2D	2d	.	2b-
2d	2G	.	2b-
=68	=68	=68	=68
2c	2A	0r	2a
2d	4B-	.	2f
.	4c	.	.
2B-	4d	.	2g
.	4e	.	.
2A	2f	.	2a
=69	=69	=69	=69
1G	1g	1d	2b-
.	.	.	4a
.	.	.	4g
2.F	1c	2f	2.a
.	.	2f	.
4G	.	.	4b-
=70	=70	=70	=70
1A	0r	2e	4cc
.	.	.	4dd
.	.	2c	4ee
.	.	.	4cc
1r	.	2d	2ff
.	.	2e	2ee
=71	=71	=71	=71
2r	0r	2f	2.dd
2G	.	2.g	.
.	.	.	4cc
2B-	.	.	4dd
.	.	4f	4ee
2B-	.	2d	[2ff
=72	=72	=72	=72
2A	0r	1f	4ff]
.	.	.	4ee
2F	.	.	1dd
2G	.	1e	.
2A	.	.	2cc#
=73	=73	=73	=73
2B-	2r	1d	1dd
4A	2d	.	.
4G	.	.	.
2A	2f	1r	1r
2B-	2f	.	.
=74	=74	=74	=74
1c	2e	1g	0r
.	2c	.	.
1G	2d	2b-	.
.	2e	2b-	.
=75	=75	=75	=75
1d	2f	2a	0r
.	4e	2f	.
.	4d	.	.
2c	2e	2g	.
2A	2f	2a	.
=76	=76	=76	=76
1G	1g	2b-	1dd
.	.	4a	.
.	.	4g	.
2D	2.f	2a	2ff
2d	.	2b	2ff
.	4g	.	.
=77	=77	=77	=77
2c	1a	1cc	2ee
2A	.	.	2cc
2B-	1g	2r	2dd
2c	.	2cc	2ee
=78	=78	=78	=78
2d	2f	2a	2ff
2G	2.g	1b-	2.ee
1B-	.	.	.
.	4f	.	4dd
.	2d	2g	[2dd
=79	=79	=79	=79
1A	1e	1a	2dd]
.	.	.	2cc#
1D	2d	1f	2dd
.	2d	.	2dd
=80	=80	=80	=80
0r	2e	0r	2cc
.	2f	.	2dd
.	2g	.	2b-
.	2e	.	2cc
=81	=81	=81	=81
2r	2.f	0r	0a
2d	.	.	.
.	4d	.	.
2c	2e	.	.
2d	[2f	.	.
=82	=82	=82	=82
2B-	2f]	1r	1g
2c	4e	.	.
.	4d	.	.
2.A	2e	2r	[1cc
.	[2f	2a	.
4B-	.	.	.
=83	=83	=83	=83
2c	4f]	2g	1cc]
.	4e	.	.
2A	2.e	2a	.
2B-	.	2f	1b-
.	4d	.	.
2G	[2d	2g	.
=84	=84	=84	=84
1A	2d]	1e	1a
.	2c#	.	.
1D	2.d	2.f	2r
.	.	.	2dd
.	4e	4g	.
=85	=85	=85	=85
0r	2f	2a	2cc
.	2B-	2.b-	2dd
.	2.e-	.	2b-
.	.	4a	.
.	.	[2g	2cc
.	4c	.	.
=86	=86	=86	=86
1r	1d	2g]	1a
.	.	2f#	.
2r	1G	2.g	1b-
2d	.	.	.
.	.	4f	.
=87	=87	=87	=87
2c	1r	2e	1a
2d	.	2f	.
2B-	2r	2d	1g
2c	[2g	2e	.
=88	=88	=88	=88
2A	2g]	1c	2r
2A	2f#	.	2cc
2G	2g	1r	2b-
2A	2e	.	2cc
=89	=89	=89	=89
2F	2f	1r	2a
2G	1d	.	2b-
1E	.	2r	2.g
.	2c#	[2g	.
.	.	.	4a
=90	=90	=90	=90
2D	1d	2g]	2b-
2d	.	2f	2a
2c	2A	2e	1a
2d	[2f	2a	.
=91	=91	=91	=91
2B-	2f]	1g	1r
2c	2e	.	.
2A	1f	2f	2r
2B-	.	2d	2dd
=92	=92	=92	=92
2A	2r	2f	2cc
2B-	2d	2f	2dd
2G	2e	2g	2b-
2A	2e	2c	2cc
=93	=93	=93	=93
2F	4f	2.d	2a
.	4e	.	.
2G	4d	.	2b-
.	4c	4e	.
2F	2d	2f	2a
2G	2B-	2d	2b-
=94	=94	=94	=94
2E	2c	2c	2g
2F	2c	2A	2a
2D	4d	2.B-	2f
.	4c	.	.
2E-	4B-	.	[2b-
.	4A	4c	.
=95	=95	=95	=95
2D	1B-	2d	4b-]
.	.	.	4a
2E-	.	2G	1g
2C	1A	2r	.
2D	.	[2d	2f#
=96	=96	=96	=96
2BB-	2G	2d]	[0g
2C	2e-	2c	.
2BB-	2d	2d	.
2C	[2c	2e-	.
=97	=97	=97	=97
1G	2c]	1d	1g_
.	2B	.	.
1C	1c	1e-	1g_
=98	=98	=98	=98
0G	0B	0d	0g]
==	==	==	==
*-	*-	*-	*-
!!!CDT: 1525/^1526/-1594/2/2
!!!OCY: Italia
!!!AGN: Mass (Parody)
!!!AST: renaissance, vocal
!!!ASW: Madrigal 1542 (Ferabosco)
!!!PWK: Masses, Book 3
!!!RNB: Cadence finals: A
!!!YOR: Le Opere Complete, v. 6, p. 30
!!!YOO: Rome, Italy: Fratelli Scalera
!!!END: 1992//
!!!EED: John Miller
!!!YEC: Copyright 2000, John Miller
!!!YEN: United States of America
!!!YEM: Rights to all derivative electronic formats reserved.
!!!YEM: Refer to licensing agreement for further details.
!!!YEM: This file must be accompanied by the licensing agreement.
!!!YEM: A copy of the licensing agreement may be found at http://www.music-cog.ohio-state.edu/HumdrumDatabases/Palestrina/license.txt
!!!EMD: converted to Humdrum by Bret Aarden
